X: 10435
T: OLD SPEED THE PLOUGH
C:
%R: reel
B: Elias Howe "The Musician's Companion" Part 1 1842 p.43 #5
S: http://imslp.org/wiki/The_Musician's_Companion_(Howe,_Elias)
Z: 2015 John Chambers <jc:trillian.mit.edu>
M: 2/4
L: 1/16
K: E
% - - - - - - - - - - - - - - - - - - - - - - - - -
|:\
EGBF FABG | EccG cBce |\
EBBG cBce | geaf gee2 ::\
egGe e2ge | fgfe cefe |
egBB e2ge | gbfb gee2 |\
egBB e2ge | fgfe cefe |\
e2gb gafg | ecBc GEE2 :|
% - - - - - - - - - - - - - - - - - - - - - - - - -
